symbols-de/shields/motorway_4x3.svg

<?xml version="1.0" encoding="UTF-8" standalone="no"?>
<svg
   xmlns:dc="http://purl.org/dc/elements/1.1/"
   xmlns:cc="http://creativecommons.org/ns#"
   xmlns:rdf="http://www.w3.org/1999/02/22-rdf-syntax-ns#"
   xmlns:svg="http://www.w3.org/2000/svg"
   xmlns="http://www.w3.org/2000/svg"
   xmlns:sodipodi="http://sodipodi.sourceforge.net/DTD/sodipodi-0.dtd"
   xmlns:inkscape="http://www.inkscape.org/namespaces/inkscape"
   width="100%"
   height="100%"
   viewBox="0 0 33.0 33.0"
   id="svg2"
   version="1.1"
   inkscape:version="0.91 r13725"
   sodipodi:docname="autobahn_4x3.svg">
  <metadata
     id="metadata9">
    <rdf:RDF>
      <cc:Work
         rdf:about="">
        <dc:format>image/svg+xml</dc:format>
        <dc:type
           rdf:resource="http://purl.org/dc/dcmitype/StillImage" />
        <dc:title></dc:title>
      </cc:Work>
    </rdf:RDF>
  </metadata>
  <defs
     id="defs7" />
  <sodipodi:namedview
     pagecolor="#ffffff"
     bordercolor="#666666"
     borderopacity="1"
     objecttolerance="10"
     gridtolerance="10"
     guidetolerance="10"
     inkscape:pageopacity="0"
     inkscape:pageshadow="2"
     inkscape:window-width="1100"
     inkscape:window-height="668"
     id="namedview5"
     showgrid="false"
     inkscape:zoom="7.1515152"
     inkscape:cx="16.5"
     inkscape:cy="16.5"
     inkscape:window-x="497"
     inkscape:window-y="195"
     inkscape:window-maximized="0"
     inkscape:current-layer="svg2" />
  <path
     style="fill:#365eaf;fill-opacity:1;stroke:#0528a2;stroke-width:1;stroke-miterlimit:4;stroke-dasharray:none;stroke-opacity:1"
     d="m 16.5,0.4999991 c -0.229389,0 -0.34375,0.00326 -0.34375,0.011719 L 1.016828,2.2812492 C 0.672741,2.3660962 0.5,2.4943617 0.5,2.6640617 l 0,27.6718753 c 0,0.1697 0.172741,0.297962 0.516828,0.382812 L 16.15625,32.48828 c 0,0.0085 0.114363,0.01172 0.34375,0.01172 0.229391,0 0.343751,-0.0032 0.343751,-0.01172 l 15.139422,-1.769531 c 0.344087,-0.08485 0.441393,-0.224567 0.516827,-0.382812 0,-14.860404 0,-14.542796 0,-27.6718753 0,-0.1697 -0.17274,-0.2979652 -0.516827,-0.3828125 L 16.843751,0.5117179 c 0,-0.00846 -0.114364,-0.011719 -0.343751,-0.011719 z"
     id="path6"
     inkscape:connector-curvature="0"
     sodipodi:nodetypes="sccccccsccccccs" />
</svg>

<?xml version="1.0" encoding="UTF-8"?>
<svg xmlns="http://www.w3.org/2000/svg" xmlns:xlink="http://www.w3.org/1999/xlink" width="34pt" height="42pt" viewBox="0 0 34 42" version="1.1">
<g id="surface1">
<path style="fill-rule:nonzero;fill:rgb(21.176471%,36.862745%,68.627451%);fill-opacity:1;stroke-width:1;stroke-linecap:butt;stroke-linejoin:miter;stroke:rgb(1.960784%,15.686275%,63.529412%);stroke-opacity:1;stroke-miterlimit:4;" d="M 16.5 0.500279 C 16.268727 0.500279 16.154986 0.503348 16.154986 0.512556 L 1.016085 2.280413 C 0.671071 2.36635 0.50046 2.495257 0.50046 2.664062 L 0.50046 30.335938 C 0.50046 30.504743 0.671071 30.63365 1.016085 30.719587 L 16.154986 32.487444 C 16.154986 32.496652 16.268727 32.499721 16.5 32.499721 C 16.731273 32.499721 16.845014 32.496652 16.845014 32.487444 L 31.983915 30.719587 C 32.328929 30.63365 32.423713 30.495536 32.49954 30.335938 C 32.49954 15.474888 32.49954 15.794085 32.49954 2.664062 C 32.49954 2.495257 32.328929 2.36635 31.983915 2.280413 L 16.845014 0.512556 C 16.845014 0.503348 16.731273 0.500279 16.5 0.500279 Z M 16.5 0.500279 " transform="matrix(1.030303,0,0,1.272727,0,0)"/>
</g>
</svg>
